svgs/sunup.svg

<svg width="192" height="192" viewBox="0 0 192 192" fill="none" xmlns="http://www.w3.org/2000/svg">
<path d="M32.7914 57.5C39.2078 46.9881 48.1728 38.2018 58.8275 32C80.808 29.6827 92.9819 27.9599 114.5 24.3313C146.417 32.5461 170 61.519 170 96C170 107.265 167.483 117.942 162.98 127.5C119 133.5 70 115.5 26.5109 121.5C23.2109 112.51 21.6965 102.882 22.053 93.3135M32.7914 57.5C45.3777 56.1511 54.17 55.8245 73.5 59M32.7914 57.5C26.2026 68.2943 22.5225 80.7113 22.053 93.3135M43.5495 148.201C56.3416 161.06 73.8605 169.272 93.4175 169.955C113.928 170.671 132.78 162.97 146.648 149.952M22.053 93.3135C77.3572 94.192 103.25 92.3534 140.5 85" stroke="black" stroke-width="12" stroke-linecap="round" stroke-linejoin="round"/>
</svg>

<svg xmlns="http://www.w3.org/2000/svg" width="192" height="192" fill="none" viewBox="0 0 192 192"><path stroke="#000" stroke-linecap="round" stroke-linejoin="round" stroke-width="12" d="M32.791 57.5A74.4 74.4 0 0 1 58.828 32c21.98-2.317 34.154-4.04 55.672-7.669C146.417 32.546 170 61.52 170 96c0 11.265-2.517 21.942-7.02 31.5-43.98 6-92.98-12-136.47-6a74 74 0 0 1-4.457-28.186M32.791 57.5C45.378 56.151 54.17 55.825 73.5 59m-40.709-1.5c-6.588 10.794-10.268 23.211-10.738 35.814M43.55 148.2c12.792 12.859 30.31 21.071 49.868 21.754 20.51.716 39.362-6.985 53.23-20.003M22.053 93.314c55.304.878 81.197-.96 118.447-8.314"/></svg>
